public/Multi-currency Wallets.svg

<svg width="378" height="101" viewBox="0 0 378 101" fill="none" xmlns="http://www.w3.org/2000/svg">
<path d="M1.86 40V4.224H12.676L21.62 21.592L30.356 4.224H41.172V40H30.356V21.28L23.752 33.76H19.332L12.676 21.28V40H1.86ZM60.1183 40.416C55.7156 40.416 52.2663 39.3067 49.7703 37.088C47.3089 34.8347 46.0783 31.732 46.0783 27.78V13.948H56.7903V28.248C56.7903 29.6347 57.0849 30.6573 57.6743 31.316C58.2983 31.9747 59.1303 32.304 60.1703 32.304C61.1756 32.304 61.9556 31.9747 62.5103 31.316C63.0996 30.6573 63.3943 29.6347 63.3943 28.248V13.948H73.8983V27.78C73.8983 31.7667 72.685 34.8693 70.2583 37.088C67.8663 39.3067 64.4863 40.416 60.1183 40.416ZM89.0823 40.416C86.6209 40.416 84.6103 40 83.0503 39.168C81.5249 38.336 80.4156 37.2093 79.7223 35.788C79.0289 34.3667 78.6823 32.772 78.6823 31.004V4.692L89.6543 3.08V29.496C89.6543 30.2933 89.9143 30.9173 90.4343 31.368C90.9543 31.784 91.6303 31.992 92.4623 31.992C93.2943 31.992 94.1263 31.784 94.9583 31.368L95.7383 38.596C94.9063 39.1853 93.8489 39.636 92.5663 39.948C91.2836 40.26 90.1223 40.416 89.0823 40.416ZM108.958 40.416C106.497 40.416 104.486 40 102.926 39.168C101.401 38.336 100.292 37.2093 99.5985 35.788C98.9051 34.3667 98.5585 32.772 98.5585 31.004V20.396H95.2305V13.948H99.3385L104.174 5.732H109.53V13.948H115.562V20.396H109.53V29.496C109.53 30.2933 109.79 30.9173 110.31 31.368C110.83 31.784 111.506 31.992 112.338 31.992C113.17 31.992 114.002 31.784 114.834 31.368L115.614 38.596C114.782 39.1853 113.725 39.636 112.442 39.948C111.16 40.26 109.998 40.416 108.958 40.416ZM128.982 40.416C126.659 40.416 124.77 40 123.314 39.168C121.892 38.336 120.852 37.2093 120.194 35.788C119.535 34.3667 119.206 32.772 119.206 31.004V13.948H130.178V29.496C130.178 30.2933 130.403 30.9173 130.854 31.368C131.339 31.784 131.911 31.992 132.57 31.992C133.263 31.992 133.974 31.784 134.702 31.368L135.274 38.596C134.511 39.1853 133.523 39.636 132.31 39.948C131.096 40.26 129.987 40.416 128.982 40.416ZM124.718 11.088C123.123 11.088 121.754 10.5853 120.61 9.58C119.466 8.54 118.894 7.27467 118.894 5.784C118.894 4.744 119.171 3.84267 119.726 3.08C120.28 2.28266 121.008 1.65866 121.91 1.208C122.811 0.75733 123.747 0.531997 124.718 0.531997C125.792 0.531997 126.763 0.774663 127.63 1.26C128.531 1.74533 129.242 2.38667 129.762 3.184C130.316 3.98133 130.594 4.848 130.594 5.784C130.594 6.824 130.299 7.74267 129.71 8.54C129.155 9.33733 128.427 9.96133 127.526 10.412C126.659 10.8627 125.723 11.088 124.718 11.088ZM137.283 31.004V22.892H151.271V31.004H137.283ZM169.124 40.416C166.212 40.416 163.698 39.844 161.584 38.7C159.469 37.556 157.84 35.996 156.696 34.02C155.552 32.0093 154.98 29.704 154.98 27.104C154.98 24.5387 155.569 22.2333 156.748 20.188C157.926 18.1427 159.573 16.5307 161.688 15.352C163.837 14.1733 166.316 13.584 169.124 13.584C172.486 13.584 175.138 14.2773 177.08 15.664L175.936 22.736C175.069 22.3547 174.254 22.0947 173.492 21.956C172.729 21.7827 172.001 21.696 171.308 21.696C169.609 21.696 168.257 22.1813 167.252 23.152C166.281 24.088 165.796 25.3707 165.796 27C165.796 28.5947 166.281 29.8947 167.252 30.9C168.222 31.8707 169.505 32.356 171.1 32.356C172.486 32.356 174.116 32.0613 175.988 31.472L176.976 38.752C175.832 39.3067 174.636 39.7227 173.388 40C172.174 40.2773 170.753 40.416 169.124 40.416ZM194.739 40.416C190.337 40.416 186.887 39.3067 184.391 37.088C181.93 34.8347 180.699 31.732 180.699 27.78V13.948H191.411V28.248C191.411 29.6347 191.706 30.6573 192.295 31.316C192.919 31.9747 193.751 32.304 194.791 32.304C195.797 32.304 196.577 31.9747 197.131 31.316C197.721 30.6573 198.015 29.6347 198.015 28.248V13.948H208.519V27.78C208.519 31.7667 207.306 34.8693 204.879 37.088C202.487 39.3067 199.107 40.416 194.739 40.416ZM213.459 40V13.948H224.275V20.448C224.969 18.0907 226.043 16.3573 227.499 15.248C228.99 14.1387 230.758 13.584 232.803 13.584L234.103 22.788C233.271 22.684 232.457 22.632 231.659 22.632C226.841 22.632 224.431 24.608 224.431 28.56V40H213.459ZM236.717 40V13.948H247.533V20.448C248.227 18.0907 249.301 16.3573 250.757 15.248C252.248 14.1387 254.016 13.584 256.061 13.584L257.361 22.788C256.529 22.684 255.715 22.632 254.917 22.632C250.099 22.632 247.689 24.608 247.689 28.56V40H236.717ZM275.385 33.136C276.391 33.136 277.448 33.032 278.557 32.824C279.701 32.616 280.863 32.2347 282.041 31.68L283.289 38.388C282.007 39.0467 280.603 39.5493 279.077 39.896C277.587 40.2427 275.871 40.416 273.929 40.416C270.428 40.416 267.481 39.844 265.089 38.7C262.732 37.556 260.947 35.9787 259.733 33.968C258.52 31.9573 257.913 29.6347 257.913 27C257.913 24.296 258.555 21.9387 259.837 19.928C261.155 17.9173 262.905 16.3573 265.089 15.248C267.273 14.1387 269.683 13.584 272.317 13.584C276.235 13.584 279.233 14.8147 281.313 17.276C283.393 19.7027 284.433 23.1693 284.433 27.676L268.937 29.652C270.081 31.9747 272.231 33.136 275.385 33.136ZM268.105 24.868L276.269 23.152C276.131 22.0427 275.749 21.228 275.125 20.708C274.501 20.1533 273.721 19.876 272.785 19.876C271.399 19.876 270.289 20.3613 269.457 21.332C268.66 22.268 268.209 23.4467 268.105 24.868ZM288.057 40V13.948H298.873V19.616C299.67 17.6747 300.849 16.184 302.409 15.144C304.004 14.104 305.893 13.584 308.077 13.584C311.474 13.584 314.109 14.7627 315.981 17.12C317.853 19.4427 318.789 22.736 318.789 27V40H307.817V26.428C307.817 23.3427 306.569 21.8 304.073 21.8C302.582 21.8 301.369 22.3547 300.433 23.464C299.497 24.5387 299.029 25.9947 299.029 27.832V40H288.057ZM336.549 40.416C333.637 40.416 331.124 39.844 329.009 38.7C326.895 37.556 325.265 35.996 324.121 34.02C322.977 32.0093 322.405 29.704 322.405 27.104C322.405 24.5387 322.995 22.2333 324.173 20.188C325.352 18.1427 326.999 16.5307 329.113 15.352C331.263 14.1733 333.741 13.584 336.549 13.584C339.912 13.584 342.564 14.2773 344.505 15.664L343.361 22.736C342.495 22.3547 341.68 22.0947 340.917 21.956C340.155 21.7827 339.427 21.696 338.733 21.696C337.035 21.696 335.683 22.1813 334.677 23.152C333.707 24.088 333.221 25.3707 333.221 27C333.221 28.5947 333.707 29.8947 334.677 30.9C335.648 31.8707 336.931 32.356 338.525 32.356C339.912 32.356 341.541 32.0613 343.413 31.472L344.401 38.752C343.257 39.3067 342.061 39.7227 340.813 40C339.6 40.2773 338.179 40.416 336.549 40.416ZM362.061 50.14C360.744 50.14 359.513 50.0533 358.369 49.88C357.225 49.7067 356.324 49.4987 355.665 49.256L356.497 41.716C357.121 41.8547 357.797 41.9587 358.525 42.028C359.253 42.132 359.964 42.184 360.657 42.184C362.98 42.184 364.644 41.6987 365.649 40.728C366.689 39.7573 367.209 38.2667 367.209 36.256V33.292C366.377 35.4067 365.198 36.9493 363.673 37.92C362.148 38.856 360.345 39.324 358.265 39.324C355.041 39.324 352.545 38.1627 350.777 35.84C349.009 33.4827 348.125 30.172 348.125 25.908V13.948H359.097V26.48C359.097 29.5653 360.189 31.108 362.373 31.108C363.725 31.108 364.8 30.5533 365.597 29.444C366.429 28.3347 366.845 26.8787 366.845 25.076V13.948H377.817V33.916C377.817 39.4627 376.448 43.5533 373.709 46.188C370.97 48.8227 367.088 50.14 362.061 50.14ZM8.308 100L0.196 64.224H11.896L15.276 86.532L18.76 70.308H30.876L34.412 86.532L37.792 64.224H49.492L41.38 100H29.264L24.844 80.396L20.424 100H8.308ZM62.1467 100.416C59.7547 100.416 57.588 99.844 55.6467 98.7C53.7054 97.5213 52.1627 95.9093 51.0187 93.864C49.9094 91.8187 49.3547 89.4787 49.3547 86.844C49.3547 84.2093 49.9094 81.904 51.0187 79.928C52.1627 77.952 53.7054 76.4093 55.6467 75.3C57.588 74.156 59.7547 73.584 62.1467 73.584C63.8454 73.584 65.492 74.052 67.0867 74.988C68.6814 75.924 69.912 77.4667 70.7787 79.616V73.948H81.5947V100H70.6747V95.164C69.8427 96.8627 68.7334 98.1627 67.3467 99.064C65.96 99.9653 64.2267 100.416 62.1467 100.416ZM65.5267 92.2C66.948 92.2 68.1614 91.6973 69.1667 90.692C70.172 89.652 70.6747 88.3867 70.6747 86.896C70.6747 85.4053 70.172 84.192 69.1667 83.256C68.1614 82.2853 66.948 81.8 65.5267 81.8C64.036 81.8 62.788 82.3027 61.7827 83.308C60.7774 84.3133 60.2747 85.544 60.2747 87C60.2747 88.456 60.7774 89.6867 61.7827 90.692C62.788 91.6973 64.036 92.2 65.5267 92.2ZM97.0549 100.416C94.5936 100.416 92.5829 100 91.0229 99.168C89.4976 98.336 88.3883 97.2093 87.6949 95.788C87.0016 94.3667 86.6549 92.772 86.6549 91.004V64.692L97.6269 63.08V89.496C97.6269 90.2933 97.8869 90.9173 98.4069 91.368C98.9269 91.784 99.6029 91.992 100.435 91.992C101.267 91.992 102.099 91.784 102.931 91.368L103.711 98.596C102.879 99.1853 101.822 99.636 100.539 99.948C99.2563 100.26 98.0949 100.416 97.0549 100.416ZM116.555 100.416C114.094 100.416 112.083 100 110.523 99.168C108.998 98.336 107.888 97.2093 107.195 95.788C106.502 94.3667 106.155 92.772 106.155 91.004V64.692L117.127 63.08V89.496C117.127 90.2933 117.387 90.9173 117.907 91.368C118.427 91.784 119.103 91.992 119.935 91.992C120.767 91.992 121.599 91.784 122.431 91.368L123.211 98.596C122.379 99.1853 121.322 99.636 120.039 99.948C118.756 100.26 117.595 100.416 116.555 100.416ZM141.729 93.136C142.734 93.136 143.792 93.032 144.901 92.824C146.045 92.616 147.206 92.2347 148.385 91.68L149.633 98.388C148.35 99.0467 146.946 99.5493 145.421 99.896C143.93 100.243 142.214 100.416 140.273 100.416C136.772 100.416 133.825 99.844 131.433 98.7C129.076 97.556 127.29 95.9787 126.077 93.968C124.864 91.9573 124.257 89.6347 124.257 87C124.257 84.296 124.898 81.9387 126.181 79.928C127.498 77.9173 129.249 76.3573 131.433 75.248C133.617 74.1387 136.026 73.584 138.661 73.584C142.578 73.584 145.577 74.8147 147.657 77.276C149.737 79.7027 150.777 83.1693 150.777 87.676L135.281 89.652C136.425 91.9747 138.574 93.136 141.729 93.136ZM134.449 84.868L142.613 83.152C142.474 82.0427 142.093 81.228 141.469 80.708C140.845 80.1533 140.065 79.876 139.129 79.876C137.742 79.876 136.633 80.3613 135.801 81.332C135.004 82.268 134.553 83.4467 134.449 84.868ZM165.529 100.416C163.067 100.416 161.057 100 159.497 99.168C157.971 98.336 156.862 97.2093 156.169 95.788C155.475 94.3667 155.129 92.772 155.129 91.004V80.396H151.801V73.948H155.909L160.745 65.732H166.101V73.948H172.133V80.396H166.101V89.496C166.101 90.2933 166.361 90.9173 166.881 91.368C167.401 91.784 168.077 91.992 168.909 91.992C169.741 91.992 170.573 91.784 171.405 91.368L172.185 98.596C171.353 99.1853 170.295 99.636 169.013 99.948C167.73 100.26 166.569 100.416 165.529 100.416ZM184.304 100.416C182.744 100.416 181.167 100.26 179.572 99.948C177.977 99.636 176.539 99.2027 175.256 98.648L176.764 92.096C177.561 92.512 178.653 92.876 180.04 93.188C181.427 93.4653 182.657 93.604 183.732 93.604C185.465 93.604 186.332 93.136 186.332 92.2C186.332 91.7493 186.055 91.42 185.5 91.212C184.98 91.004 184.287 90.8307 183.42 90.692C182.588 90.5187 181.687 90.3107 180.716 90.068C179.745 89.7907 178.827 89.392 177.96 88.872C177.128 88.3173 176.435 87.5373 175.88 86.532C175.36 85.5267 175.1 84.2093 175.1 82.58C175.1 79.8413 176.175 77.6573 178.324 76.028C180.508 74.3987 183.489 73.584 187.268 73.584C188.724 73.584 190.076 73.688 191.324 73.896C192.607 74.104 193.82 74.5373 194.964 75.196L193.872 81.54C192.035 80.7773 190.111 80.396 188.1 80.396C186.817 80.396 185.881 80.5 185.292 80.708C184.737 80.916 184.46 81.2627 184.46 81.748C184.46 82.1293 184.737 82.424 185.292 82.632C185.847 82.84 186.557 83.048 187.424 83.256C188.325 83.4293 189.261 83.6893 190.232 84.036C191.203 84.348 192.121 84.7987 192.988 85.388C193.889 85.9773 194.617 86.7747 195.172 87.78C195.727 88.7507 196.004 90.016 196.004 91.576C196.004 94.3493 194.981 96.516 192.936 98.076C190.891 99.636 188.013 100.416 184.304 100.416Z" fill="black"/>
</svg>

<svg xmlns="http://www.w3.org/2000/svg" width="378" height="101" fill="none"><path fill="#000" d="M1.86 40V4.224h10.816l8.944 17.368 8.736-17.368h10.816V40H30.356V21.28l-6.604 12.48h-4.42l-6.656-12.48V40zm58.258.416q-6.603 0-10.348-3.328-3.692-3.38-3.692-9.308V13.948H56.79v14.3q0 2.08.884 3.068.936.988 2.496.988 1.509 0 2.34-.988.885-.988.884-3.068v-14.3h10.504V27.78q0 5.98-3.64 9.308-3.588 3.328-10.14 3.328m28.964 0q-3.692 0-6.032-1.248-2.287-1.248-3.328-3.38t-1.04-4.784V4.692L89.654 3.08v26.416q0 1.195.78 1.872.78.624 2.028.624t2.496-.624l.78 7.228q-1.248.884-3.172 1.352t-3.484.468m19.876 0q-3.692 0-6.032-1.248-2.287-1.248-3.328-3.38t-1.04-4.784V20.396H95.23v-6.448h4.108l4.836-8.216h5.356v8.216h6.032v6.448h-6.032v9.1q0 1.195.78 1.872.78.624 2.028.624t2.496-.624l.78 7.228q-1.248.884-3.172 1.352t-3.484.468m20.024 0q-3.484 0-5.668-1.248-2.133-1.248-3.12-3.38t-.988-4.784V13.948h10.972v15.548q0 1.195.676 1.872a2.55 2.55 0 0 0 1.716.624q1.04 0 2.132-.624l.572 7.228q-1.144.884-2.964 1.352t-3.328.468m-4.264-29.328q-2.392 0-4.108-1.508-1.716-1.56-1.716-3.796 0-1.56.832-2.704a5.7 5.7 0 0 1 2.184-1.872 6.2 6.2 0 0 1 2.808-.676q1.611 0 2.912.728 1.352.728 2.132 1.924.832 1.196.832 2.6 0 1.56-.884 2.756a5.74 5.74 0 0 1-2.184 1.872 6 6 0 0 1-2.808.676m12.565 19.916v-8.112h13.988v8.112zm31.841 9.412q-4.369 0-7.54-1.716t-4.888-4.68q-1.716-3.015-1.716-6.916 0-3.847 1.768-6.916 1.767-3.067 4.94-4.836 3.224-1.768 7.436-1.768 5.043 0 7.956 2.08l-1.144 7.072q-1.3-.572-2.444-.78a10 10 0 0 0-2.184-.26q-2.548 0-4.056 1.456-1.456 1.404-1.456 3.848 0 2.392 1.456 3.9 1.455 1.456 3.848 1.456 2.08 0 4.888-.884l.988 7.28q-1.716.832-3.588 1.248-1.82.416-4.264.416m25.615 0q-6.603 0-10.348-3.328-3.692-3.38-3.692-9.308V13.948h10.712v14.3q0 2.08.884 3.068.936.988 2.496.988 1.509 0 2.34-.988.885-.988.884-3.068v-14.3h10.504V27.78q0 5.98-3.64 9.308-3.588 3.328-10.14 3.328m18.72-.416V13.948h10.816v6.5q1.04-3.535 3.224-5.2 2.236-1.664 5.304-1.664l1.3 9.204a20 20 0 0 0-2.444-.156q-7.228 0-7.228 5.928V40zm23.258 0V13.948h10.816v6.5q1.04-3.535 3.224-5.2 2.237-1.664 5.304-1.664l1.3 9.204a20 20 0 0 0-2.444-.156q-7.227 0-7.228 5.928V40zm38.668-6.864a17 17 0 0 0 3.172-.312q1.716-.312 3.484-1.144l1.248 6.708a17.8 17.8 0 0 1-4.212 1.508q-2.235.52-5.148.52-5.252 0-8.84-1.716-3.535-1.716-5.356-4.732T257.913 27q0-4.056 1.924-7.072 1.976-3.015 5.252-4.68t7.228-1.664q5.877 0 8.996 3.692 3.12 3.64 3.12 10.4l-15.496 1.976q1.716 3.484 6.448 3.484m-7.28-8.268 8.164-1.716q-.207-1.665-1.144-2.444-.936-.832-2.34-.832-2.08 0-3.328 1.456-1.196 1.404-1.352 3.536M288.057 40V13.948h10.816v5.668q1.196-2.912 3.536-4.472 2.392-1.56 5.668-1.56 5.096 0 7.904 3.536 2.808 3.484 2.808 9.88v13h-10.972V26.428q0-4.628-3.744-4.628-2.236 0-3.64 1.664-1.404 1.612-1.404 4.368V40zm48.492.416q-4.368 0-7.54-1.716t-4.888-4.68q-1.716-3.015-1.716-6.916 0-3.847 1.768-6.916 1.769-3.067 4.94-4.836 3.224-1.768 7.436-1.768 5.044 0 7.956 2.08l-1.144 7.072q-1.3-.572-2.444-.78a10 10 0 0 0-2.184-.26q-2.547 0-4.056 1.456-1.456 1.404-1.456 3.848 0 2.392 1.456 3.9 1.457 1.456 3.848 1.456 2.08 0 4.888-.884l.988 7.28q-1.716.832-3.588 1.248-1.82.416-4.264.416m25.512 9.724q-1.976 0-3.692-.26t-2.704-.624l.832-7.54q.936.209 2.028.312 1.092.156 2.132.156 3.484 0 4.992-1.456 1.56-1.455 1.56-4.472v-2.964q-1.248 3.172-3.536 4.628-2.288 1.404-5.408 1.404-4.836 0-7.488-3.484-2.652-3.536-2.652-9.932v-11.96h10.972V26.48q0 4.628 3.276 4.628 2.028 0 3.224-1.664 1.248-1.664 1.248-4.368V13.948h10.972v19.968q0 8.32-4.108 12.272t-11.648 3.952M8.308 100 .196 64.224h11.7l3.38 22.308 3.484-16.224h12.116l3.536 16.224 3.38-22.308h11.7L41.38 100H29.264l-4.42-19.604L20.424 100zm53.839.416q-3.588 0-6.5-1.716-2.913-1.768-4.628-4.836-1.665-3.067-1.664-7.02 0-3.952 1.664-6.916 1.715-2.964 4.628-4.628 2.912-1.716 6.5-1.716 2.547 0 4.94 1.404 2.391 1.404 3.692 4.628v-5.668h10.816V100h-10.92v-4.836q-1.248 2.548-3.328 3.9t-5.2 1.352m3.38-8.216q2.131 0 3.64-1.508 1.508-1.56 1.508-3.796t-1.508-3.64q-1.509-1.456-3.64-1.456-2.236 0-3.744 1.508T60.275 87t1.508 3.692 3.744 1.508m31.528 8.216q-3.692 0-6.032-1.248-2.288-1.248-3.328-3.38t-1.04-4.784V64.692l10.972-1.612v26.416q0 1.195.78 1.872.78.624 2.028.624t2.496-.624l.78 7.228q-1.248.885-3.172 1.352t-3.484.468m19.5 0q-3.692 0-6.032-1.248-2.288-1.248-3.328-3.38t-1.04-4.784V64.692l10.972-1.612v26.416q0 1.195.78 1.872.78.624 2.028.624t2.496-.624l.78 7.228q-1.248.885-3.172 1.352t-3.484.468m25.174-7.28q1.508 0 3.172-.312 1.716-.312 3.484-1.144l1.248 6.708a17.8 17.8 0 0 1-4.212 1.508q-2.236.52-5.148.52-5.252 0-8.84-1.716-3.536-1.716-5.356-4.732T124.257 87q0-4.056 1.924-7.072 1.976-3.015 5.252-4.68t7.228-1.664q5.876 0 8.996 3.692 3.12 3.64 3.12 10.4l-15.496 1.976q1.716 3.484 6.448 3.484m-7.28-8.268 8.164-1.716q-.208-1.665-1.144-2.444-.936-.832-2.34-.832-2.08 0-3.328 1.456-1.196 1.404-1.352 3.536m31.08 15.548q-3.692 0-6.032-1.248-2.289-1.248-3.328-3.38-1.04-2.132-1.04-4.784V80.396h-3.328v-6.448h4.108l4.836-8.216h5.356v8.216h6.032v6.448h-6.032v9.1q0 1.195.78 1.872.78.624 2.028.624t2.496-.624l.78 7.228q-1.248.885-3.172 1.352t-3.484.468m18.775 0q-2.34 0-4.732-.468t-4.316-1.3l1.508-6.552q1.195.624 3.276 1.092 2.08.416 3.692.416 2.6 0 2.6-1.404 0-.675-.832-.988-.78-.312-2.08-.52a71 71 0 0 1-2.704-.624 11.4 11.4 0 0 1-2.756-1.196q-1.248-.833-2.08-2.34-.78-1.508-.78-3.952 0-4.109 3.224-6.552 3.276-2.445 8.944-2.444 2.184 0 4.056.312 1.924.312 3.64 1.3l-1.092 6.344a14.9 14.9 0 0 0-5.772-1.144q-1.924 0-2.808.312-.832.312-.832 1.04 0 .572.832.884t2.132.624q1.352.26 2.808.78 1.456.468 2.756 1.352 1.351.885 2.184 2.392.832 1.456.832 3.796 0 4.16-3.068 6.5t-8.632 2.34"/></svg>
